!!!!SEGMENT: pl-kk--kk-i-382--070_anonim--offertorium-nro-25.krn
!!!cenid: 18xx:1586
!!!COM: Anonim
!!!COM-rismID: pe30004985
!!!CDT:
!!!CNT:
!!!OTL: Offertorium Nro 25
!!!PDT:
!!!AGN: Sacred
!!!SMS-siglum: PL-Kk
!!!SMS-shelfmark: Kk.I.382
!!!SMS-shelfwork: 070 W
!!!SMS-variant:
!!!SMS-altvar:
!!!NIFC-rismSourceID: 1001139027
!!!NIFC-rismChildID: 1001142296
!!!NIFC-islandoraID: pl-kk:6162
!!!URL-pdf-islandora: https://repozytorium.nifc.pl/islandora/object/pl-kk%3A6162/datastream/PDF/view
!!!URL-scan: https://polish.musicsources.pl/pl/lokalizacje/galeria/rekopisy/5994 @EN{Scan on Polish Music Sources Website} @PL{Skany w portalu Dziedzictwo Muzyki Polskiej w otwartym dostępie}
!!!IIIF:
!!!ONB-nifc: UWAGA: Offertoria od skanu 0041 (S/T1), 0113 (T2), 0185 (A/B1), 0262 (B2)
!!!ONB-nifc: UWAGA: obsada: S/T1, A/B1, T2, B2. Skany 0050, 0195-0196, 0122-0123, 0271
!!!AIN: 1 alto 1 bass 2 tenor
!!!key:
**kern	**text	**kern	**text	**kern	**text	**kern	**text
*part4	*part4	*part3	*part3	*part2	*part2	*part1	*part1
*staff4	*staff4	*staff3	*staff3	*staff2	*staff2	*staff1	*staff1
*Ibass	*	*Itenor	*	*Ialto	*	*Itenor	*
*I"Basso II	*	*I"Tenore II	*	*I"Alto. vel Basso I	*	*I"Soprano vel Tenore I.	*
*I'B2	*	*I'T2	*	*I'A / B1	*	*I'S / T1	*
*clefF4	*	*clefC4	*	*clefC3	*	*clefC1	*
*k[b-e-a-]	*	*k[b-e-a-]	*	*k[b-e-a-]	*	*k[b-e-a-]	*
*E-:	*	*E-:	*	*E-:	*	*E-:	*
*M3/4	*	*M3/4	*	*M3/4	*	*M3/4	*
=1	=1	=1	=1	=1	=1	=1	=1
*all\right	*	*all\right	*	*all\right	*	*all\right	*
*2\right	*	*2\right	*	*2\right	*	*2\right	*
!LO:TX:t=P:problem=znaki[BB- E- A-]	!	!	!	!	!	!	!
!LO:TX:a:t=Nro. 25	!	!LO:TX:a:t=Nro 25	!	!LO:TX:a:t=Nro 25.	!	!LO:TX:a:t=Nro 25.	!
2E-\	Ho-	2G/	Ho-	2e-\	Ho-	2e-/	Ho-
4E-\	-mo	4B-\	-mo	4e-\	-mo	4g\	-mo
=2	=2	=2	=2	=2	=2	=2	=2
4E-\	qui-	2.B-\	qui-	2.f\	qui-	2.b-\	qui-
(8D\L	.	.	.	.	.	.	.
8C\J	.	.	.	.	.	.	.
4D\)	.	.	.	.	.	.	.
=3	=3	=3	=3	=3	=3	=3	=3
4E-\	-dam	4B-\	-dam	4e-\	-dam	4g\	-dam
4E-\	fe-	4e-\	fe-	4e-\	fe-	4e-/	fe-
4E-\	-cit	4e-\	-cit	4e-\	-cit	4e-/	-cit
=4	=4	=4	=4	=4	=4	=4	=4
!	!LO:MO:mod=coe-	!	!LO:MO:mod=coe-	!	!LO:MO:mod=coe-	!	!LO:MO:mod=coe-
2A-\	ce-	2A-\	ce-	2e-\	ce-	2cc\	ce-
4G\	-nam	4B-\	-nam	4e-\	-nam	4b-\	-nam
=5	=5	=5	=5	=5	=5	=5	=5
2.F\	ma-	(4c\	ma-	(4e-\	ma-	2.a-\	ma-
.	.	2B-\)	.	8d\L	.	.	.
.	.	.	.	8c\J	.	.	.
.	.	.	.	4d\)	.	.	.
=6	=6	=6	=6	=6	=6	=6	=6
*^	*^	*	*	*	*	*	*
2ryy	4E-\	.	-gnam	4B-\	-gnam	4e-\	-gnam,	4g\	-gnam
.	4r	.	.	4r	.	4r	.	4r	.
4G/	4rD	e-	.	4r	.	4r	.	4g\	et
!LO:LB:g=original	!LO:LB:g=original	!	!	!LO:LB:g=original	!	!LO:LB:g=original	!	!LO:LB:g=original	!
=7	=7	=7	=7	=7	=7	=7	=7	=7	=7
2c/	4r	-mi	.	4r	.	4r	.	[2.cc\	mi-
.	4ryy	.	.	4r	.	4r	.	.	.
4ryy	4E-\	et	.	4c\	et	4g\	et	.	.
*	*	*v	*v	*	*	*	*	*	*
*v	*v	*	*	*	*	*	*	*
=8	=8	=8	=8	=8	=8	=8	=8
2E-\	mi-	2c\	mi-	2g\	mi-	2cc\]	.
4E-\	-sit	4c\	-sit	4g\	-sit	4b-\	-sit
=9	=9	=9	=9	=9	=9	=9	=9
2F\	ser-	2e-\	ser-	2f\	ser-	2an\	ser-
4F\	-vum	4d\	-vum	4f\	-vum	4b-\	-vum
=10	=10	=10	=10	=10	=10	=10	=10
2.F\	su-	2.c\	su-	2.f\	su-	(4b-\	su-
.	.	.	.	.	.	8an\L	.
.	.	.	.	.	.	8g\J	.
.	.	.	.	.	.	4a\)	.
=11	=11	=11	=11	=11	=11	=11	=11
2.BB-/	-um.	2d\	-um	4f\	-um	2b-\	-um
.	.	.	.	4r	.	.	.
.	.	4r	.	4r	.	4r	.
=12	=12	=12	=12	=12	=12	=12	=12
2F\	ho-	2B-\	ho-	2d\	ho-	2f/	ho-
4G\	-ra	4e-\	-ra	4e-\	-ra	4g\	-ra
=13	=13	=13	=13	=13	=13	=13	=13
!	!LO:MO:mod=coe-	!	!LO:MO:mod=coe-	!	!LO:MO:mod=coe-	!	!LO:MO:mod=coe-
4A-\	ce-	4d\	ce-	4f\	ce-	4a-X\	ce-
!	!LO:MO:mod=-nae	!	!LO:MO:mod=-nae	!	!LO:MO:mod=-nae	!	!LO:MO:mod=-nae
4G\	-ne	4e-\	-ne	4e-\	-ne	4g\	-ne
4r	.	4r	.	4r	.	4r	.
!	!	!	!	!LO:LB:g=original	!	!	!
=14	=14	=14	=14	=14	=14	=14	=14
2E-\	ho-	2e-\	ho-	2g\	ho-	2b-\	ho-
4A-\	-ra	4e-\	-ra	4a-\	-ra	4cc\	-ra
!	!	!	!	!	!	!LO:LB:g=original	!
=15	=15	=15	=15	=15	=15	=15	=15
!	!LO:MO:mod=coe-	!	!LO:MO:mod=coe-	!	!LO:MO:mod=coe-	!	!LO:MO:mod=coe-
4G\	ce-	4e-\	ce-	4b-\	ce-	4dd-X\	ce-
!	!LO:MO:mod=-nae	!	!LO:MO:mod=-nae	!	!LO:MO:mod=-nae	!	!LO:MO:mod=-nae
4A-\	-ne	4e-\	-ne	4a-\	-ne	4cc\	-ne
4r	.	4r	.	4r	.	4r	.
!LO:LB:g=original	!	!LO:LB:g=original	!	!	!	!	!
=16	=16	=16	=16	=16	=16	=16	=16
8.A-\	di-	8.e-\	di-	8.a-\	di-	8.cc\	di-
16A-\	-ce-	16e-\	-ce-	16a-\	-ce-	16cc\	-ce-
4A-\	-re	4e-\	-re	4a-\	-re	4cc\	-re
8A-\	in-	8e-\	in-	8a-\	in-	8cc\	in-
8A-\	-vi-	8e-\	-vi-	8a-\	-vi-	8cc\	-vi-
=17	=17	=17	=17	=17	=17	=17	=17
!	!	!LO:TX:a:t=P:problem=dopisane na górze ołówkiem "sib"	!	!	!	!	!
4F\	-ta-	4B-\	-ta-	4a-\	-ta-	4ddn\	-ta-
4E-\	-tis	4B-\	-tis	4g\	-tis	4ee-\	-tis
4r	.	4r	.	4r	.	4r	.
=18	=18	=18	=18	=18	=18	=18	=18
2C/	ut	2F/	ut	2e-\	ut	2an\	ut
4F\	ve-	4c\	ve-	4e-\	ve-	4a\	ve-
!	!	!	!	!LO:LB:g=original	!	!	!
=19	=19	=19	=19	=19	=19	=19	=19
4B-\	-ni-	4B-\	-ni-	4d\	-ni-	4b-\	-ni-
4BB-/	-rent,	4B-\	-rent	4d\	-rent	4b-\	-rent
4r	.	4r	.	4r	.	4r	.
!	!	!	!	!	!	!LO:LB:g=original	!
=20	=20	=20	=20	=20	=20	=20	=20
8r	.	8r	.	8r	.	2.ee-\	qui-
8E-\	qui-	8e-\	qui-	8g\	qui-	.	.
8F\	-a	8e-\	-a	8a-\	-a	.	.
8E-\	pa-	8e-\	pa-	8g\	pa-	.	.
8F\	-ra-	8e-\	-ra-	8a-\	-ra-	.	.
8G\	-ta	8e-\	-ta	8b-\	-ta	.	.
!LO:LB:g=original	!	!LO:LB:g=original	!	!	!	!	!
=21	=21	=21	=21	=21	=21	=21	=21
4A-\	sunt,	4e-\	sunt	4cc\	sunt	4ee-\	-a
4r	.	4r	.	8r	.	8r	.
.	.	.	.	8cc\	qui-	8ee-\	qui-
4r	.	4r	.	8b-\	-a	8ddn\	-a
!	!	!	!	!LO:TX:b:i:t=V&colon;S&colon;	!	!	!
.	.	.	.	8a-\	pa-	8cc\	pa-
!	!	!	!	!LO:PB:g=original	!	!	!
=22	=22	=22	=22	=22	=22	=22	=22
8r	.	8r	.	4g\	-ra-	4b-\	-ra-
8B-\	pa-	8B-\	pa-	.	.	.	.
4B-\	-ra-	4d\	-ra-	4f\	-ta	4a-X\	-ta
4c\	-ta	4e-\	-ta	4e-\	sunt	4g\	sunt
=23	=23	=23	=23	=23	=23	=23	=23
4A-\	sunt	4c\	sunt	(4e-\	om-	2f/	om-
4B-\	om-	4B-\	om-	8d\L	.	.	.
.	.	.	.	8c\J)	.	.	.
4BB-/	-ni-	4B-\	-ni-	4d\	-ni-	4f/	-ni-
=24	=24	=24	=24	=24	=24	=24	=24
4E-\	-a	4B-\	-a	4e-\	-a	4g\	-a
4.B-\	om-	4.B-\	om-	4.f\	om-	4.dd\	om-
8BB-/	-ni-	8B-\	-ni-	8f\	-ni-	8dd\	-ni-
=25	=25	=25	=25	=25	=25	=25	=25
2E-\	-a	2.B-\	-a,	2.g\	-a,	2ee-\	-a,
!	!	!LO:TX:t=P:problem=kreska końcowa	!	!	!	!LO:TX:b:t=V&colon;S&colon;	!
4r	.	.	.	.	.	4r	.
!	!	!	!	!	!	!LO:PB:g=original	!
=26	=26	=26	=26	=26	=26	=26	=26
!	!	!	!	!	!	!LO:TX:a:t=3.	!
!	!	!	!	!	!	!LO:N:vis=0	!
2.B-\	ve-	2.d\	ve-	2.f\	ve-	1.r	.
=27	=27	=27	=27	=27	=27	=27	=27
4An\	-ni-	4c\	-ni-	4f\	-ni-	.	.
4A\	-te	4c\	-te	4f\	-te	.	.
4A\	co-	4c\	co-	4f\	co-	.	.
!LO:LB:g=original	!	!LO:LB:g=original	!	!	!	!	!
=28	=28	=28	=28	=28	=28	=28	=28
4G\	-me-	4B-\	-me-	4f\	-me-	2.r	.
4G\	-di-	4B-\	-di-	4e-\	-di-	.	.
4G\	-te	4B-\	-te	4g\	-te	.	.
!	!	!	!	!LO:LB:g=original	!	!	!
=29	=29	=29	=29	=29	=29	=29	=29
2An\	pa-	2c\	pa-	(4g\	pa-	4r	.
.	.	.	.	4f\)	.	4r	.
4A\	-nem	4c\	-nem	4e-\	-nem	4f/	et
=30	=30	=30	=30	=30	=30	=30	=30
4B-\	me-	4c\	me-	4e-\	me-	4.b-\	bi-
4BB-/	-um	4B-\	-um	4d\	-um	.	.
.	.	.	.	.	.	8b-\	-bi-
4D\	et	4B-\	et	4f\	et	4b-\	-te
=31	=31	=31	=31	=31	=31	=31	=31
4.E-\	bi-	4.B-\	bi-	4.g\	bi-	2.cc\	vi-
8E-\	-bi-	8B-\	-bi-	8g\	-bi-	.	.
4E-\	-te	4B-\	-te	4g\	-te	.	.
=32	=32	=32	=32	=32	=32	=32	=32
4F\	vi-	4B-\	vi-	4a-X\	vi-	2dd\	-num
4F\	-num	4B-\	-num	4a-\	-num	.	.
!	!	!LO:TX:b:i:t=V&colon;S&colon;	!	!	!	!	!
4A-X\	quod	4B-\	quod	4f\	quod	4dd\	quod
!	!	!LO:PB:g=original	!	!	!	!	!
=33	=33	=33	=33	=33	=33	=33	=33
4G\	mis-	4B-\	mis-	4e-\	mis-	4ee-\	mis-
4F\	-cu-	4B-\	-cu-	4f\	-cu-	4dd\	-cu-
4En\	-i	4B-\	-i	4g\	-i	4cc\	-i
!LO:LB:g=original	!	!	!	!LO:LB:g=original	!	!	!
=34	=34	=34	=34	=34	=34	=34	=34
[2.F\	vo-	(2.d\	vo-	(2.f\	vo-	(2.b-\	vo-
=35	=35	=35	=35	=35	=35	=35	=35
2.F\]	.	2.c\)	.	2f\	.	2b-\	.
.	.	.	.	(8f\L)	.	4an\)	.
.	.	.	.	8e-\J)	.	.	.
!	!	!	!	!	!	!LO:LB:g=original	!
=36	=36	=36	=36	=36	=36	=36	=36
2BB-/	-bis	2d\	-bis	2.d\	-bis	2b-\	-bis
4r	.	4r	.	.	.	4r	.
=37	=37	=37	=37	=37	=37	=37	=37
8r	.	8r	.	8r	.	2.ee-\	qui-
8E-\	qui-	8e-\	qui-	8g\	qui-	.	.
8F\	-a	8e-\	-a	8a-\	-a	.	.
8E-\	pa-	8e-\	pa-	8g\	pa-	.	.
8F\	-ra-	8e-\	-ra-	8a-\	-ra-	.	.
8G\	-ta	8e-\	-ta	8b-\	-ta	.	.
=38	=38	=38	=38	=38	=38	=38	=38
4A-\	sunt	2e-\	sunt	4cc\	sunt	4ee-\	-a
4r	.	.	.	8r	.	8r	.
.	.	.	.	8cc\	qui-	8ee-\	qui-
4r	.	4r	.	8b-\	-a	8dd\	-a
.	.	.	.	8a-\	pa-	8cc\	pa-
!	!	!	!	!LO:LB:g=original	!	!	!
=39	=39	=39	=39	=39	=39	=39	=39
8r	.	8r	.	4g\	-ra-	4b-\	-ra-
8B-\	pa-	8B-\	pa-	.	.	.	.
4B-\	-ra-	4d\	-ra-	4f\	-ta	4a-\	-ta
4c\	-ta	4e-\	-ta	4e-\	sunt	4g\	sunt
!	!	!LO:LB:g=original	!	!	!	!	!
=40	=40	=40	=40	=40	=40	=40	=40
4A-\	sunt	4c\	sunt	(4e-\	om-	2f/	om-
4B-\	om-	4B-\	om-	8d\L	.	.	.
.	.	.	.	8c\J)	.	.	.
4BB-/	-ni-	4B-\	-ni-	4d\	-ni-	4f/	-ni-
!LO:LB:g=original	!	!	!	!	!	!	!
=41	=41	=41	=41	=41	=41	=41	=41
4E-\	-a	4B-\	-a	4e-\	-a	4g\	-a
4.B-\	om-	4.B-\	om-	4.f\	om-	4.dd\	om-
8BB-/	-ni-	8B-\	-ni-	8f\	-ni-	8dd\	-ni-
!	!	!	!	!	!	!LO:LB:g=original	!
=42	=42	=42	=42	=42	=42	=42	=42
2E-\	-a.	2B-\	-a	2.g\	-a,	2ee-\	-a,
4r	.	4r	.	.	.	4r	.
=43|!	=43|!	=43|!	=43|!	=43|!	=43|!	=43|!	=43|!
*M4/4	*	*M4/4	*	*M4/4	*	*M4/4	*
*met(C.)	*	*met(C.)	*	*met(C.)	*	*met(C.)	*
2A-\	Glo-	4r	.	2a-\	Glo-	2cc\	Glo-
.	.	4A-\	glo-	.	.	.	.
4A-\	-ri-	4c\	-ri-	4a-\	-ri-	4cc\	-ri-
4A-\	-a	4A-\	-a	4a-\	-a	4cc\	-a
!	!	!	!	!LO:LB:g=original	!	!	!
=44	=44	=44	=44	=44	=44	=44	=44
2G\	pa-	(4e-\	pa-	2g\	pa-	2b-\	pa-
.	.	4d-X\)	.	.	.	.	.
4A-\	-tri	4c\	-tri	4a-\	-tri	4cc\	-tri
4A-\	et	4A-\	et	4a-\	et	4cc\	et
=45	=45	=45	=45	=45	=45	=45	=45
2A-\	fi-	2B-\	fi-	2a-\	fi-	2.dd-X\	fi-
2G\	-li-	2B-\	-li-	2g\	-li-	.	.
.	.	.	.	.	.	4dd-\	-li-
=46	=46	=46	=46	=46	=46	=46	=46
2A-\	-o	2A-\	-o	2a-\	-o	2cc\	-o
2r	.	2r	.	2r	.	2r	.
!	!	!LO:LB:g=original	!	!	!	!	!
=47	=47	=47	=47	=47	=47	=47	=47
2G\	et	2e-\	et	2g\	et	2b-\	et
2G\	spi-	2e-\	spi-	2g\	spi-	2b-\	spi-
!LO:LB:g=original	!	!	!	!	!	!LO:LB:g=original	!
=48	=48	=48	=48	=48	=48	=48	=48
2F\	-ri-	2e-\	-ri-	2f\	-ri-	2an\	-ri-
4F\	-tu-	4dn\	-tu-	4f\	-tu-	4b-\	-tu-
4G\	-i	4e-\	-i	4g\	-i	4b-\	-i
=49	=49	=49	=49	=49	=49	=49	=49
1E-	San-	1c	san-	1e-	San-	(2b-\	san-
.	.	.	.	.	.	2an\)	.
=50	=50	=50	=50	=50	=50	=50	=50
1Dn	-cto.	1B-	-cto	1dn	-cto.	2.b-\	-cto.
.	.	.	.	.	.	4r	.
!	!	!	!	!LO:LB:g=original	!	!	!
=51|!	=51|!	=51|!	=51|!	=51|!	=51|!	=51|!	=51|!
*M3/4	*	*M3/4	*	*M3/4	*	*M3/4	*
8r	.	8r	.	8r	.	2.ee-\	qui-
8E-\	qui-	8e-\	qui-	8g\	qui-	.	.
8F\	-a	8e-\	-a	8a-\	-a	.	.
8E-\	pa-	8e-\	pa-	8g\	pa-	.	.
8F\	-ra-	8e-\	-ra-	8a-\	-ra-	.	.
8G\	-ta	8e-\	-ta	8b-\	-ta	.	.
=52	=52	=52	=52	=52	=52	=52	=52
4A-\	sunt	4e-\	sunt	4cc\	sunt	4ee-\	-a
4r	.	4r	.	8r	.	8r	.
.	.	.	.	8cc\	qui-	8ee-\	qui-
4r	.	4r	.	8b-\	-a	8ddn\	-a
.	.	.	.	8a-\	pa-	8cc\	pa-
!	!	!LO:LB:g=original	!	!	!	!	!
=53	=53	=53	=53	=53	=53	=53	=53
8r	.	8r	.	4g\	-ra-	4b-\	-ra-
8B-\	pa-	8B-\	pa-	.	.	.	.
4B-\	-ra-	4d\	-ra-	4f\	-ta	4a-\	-ta
4c\	-ta	4e-\	-ta	4e-\	sunt	4g\	sunt
!LO:LB:g=original	!	!	!	!	!	!LO:LB:g=original	!
=54	=54	=54	=54	=54	=54	=54	=54
4A-\	sunt	4c\	sunt	(4e-\	om-	2f/	om-
4B-\	om-	4B-\	om-	8d\L	.	.	.
.	.	.	.	8c\J)	.	.	.
4BB-/	-ni-	4B-\	-ni-	4d\	-ni-	4f/	-ni-
!	!	!	!	!LO:LB:g=original	!	!	!
=55	=55	=55	=55	=55	=55	=55	=55
4E-\	-a	4B-\	-a	4e-\	-a	4g\	-a
4.B-\	om-	4.B-\	om-	4.f\	om-	4.dd\	om-
8BB-/	-ni-	8B-\	-ni-	8f\	-ni-	8dd\	-ni-
=56	=56	=56	=56	=56	=56	=56	=56
4E-\	-a	4B-\	-a	4g\	-a	4ee-\	-a
8r	.	8r	.	8r	.	8r	.
8BB-/	pa-	8B-\	pa-	8f\	pa-	8dd\	pa-
8E-\	-ra-	8B-\	-ra-	8g\	-ra-	8ee-\	-ra-
8BB-/	-ta	8B-\	-ta	8f\	-ta	8dd\	-ta
=57	=57	=57	=57	=57	=57	=57	=57
2E-\	sunt.	2.B-\	sunt.	2.g\	sunt.	2ee-\	sunt.
4r	.	.	.	.	.	4r	.
==	==	==	==	==	==	==	==
*-	*-	*-	*-	*-	*-	*-	*-
!!!system-decoration: [(s1,s2,s3,s4)]
!!!ENC: Marta Lawrence
!!!END: 2021-02-13
!!!ENC: Andrzej Borzym
!!!END: 2021-02-01
!!!YEC: Copyright 2022 Narodowy Instytut Fryderyka Chopina (https://polishscores.org)
!!!YEM: License CC-BY-4.0 (https://creativecommons.org/licenses/by/4.0)
